X:1
T:John Taylor, 1795 77. 77. 77. 77.
T:C Major Oliver Holden, 1800
T:Beneficence No copyright. Transcribed from Plain Psalmody, 1800.
%%score [ 1 2 3 ]
L:1/8
M:2/4
K:C
V:1 treble nm="Treble" snm="Tr."
V:2 treble-8 nm="Tenor" snm="T."
V:3 bass nm="Bass" snm="B."
V:1
 c3 A | GE FG | A2 B2 | c4 | d3 c | B>c AA | G4 | A2 d2 | c2 G2 | AB cd | c4 | ef ed | cG Ad | %13
 c2 B2 | c4 |: G2 A2 | GE Gc | G2 F2 | (F2 E2) | z4 | z4 | z4 | z4 | e3 d | c3 c | d2 e2 | d4 | %27
 c3 d | cG Af | e2 d2 | c4 :| %31
V:2
 G3 c | cG AB | c2 d2 | e4 | B3 c | d>e dc | B4 | c2 B2 | e2 e2 | d2 ef | e4 | c3 d | e2 d2 | %13
w: 1.~Fa- ther|of * our *|fee- ble|race,|Wise, ben-|e- fi- cent, and|kind,|Spread o'er|na- ture's|am- ple *|face,|Flows thy|good- ness|
 e2 d2 | e4 |: E2 F2 | EC EF | E2 D2 | (D2 C2) | G2 A2 | GE Gc | G2 F2 | (F2 E2) | [cg]3 [dg] | %24
w: un- con-|fined.|Mu- sing|in * the *|si- lent|grove, *|Or the|bu- * sy *|walks of|men, *|Still we|
 [eg]3 [eg] | [Bg]2 [cg]2 | [Bg]4 | [eg]3 [df] | e2 [da]2 | [cg]2 [Bdf]2 | [ce]4 :| %31
w: trace Thy|won- drous|love,|Clai- ming|large re-|turns a-|gain.|
V:3
 C,3 C, | C,2 C,2 | C,2 G,,2 | C,4 | G,3 C, | D,>D, D,D, | G,4 | C,2 G,2 | E,2 C,2 | F,2 G,2 | %10
 C,4 | C,3 G, | E,2 F,2 | G,2 G,,2 | C,4 |: z4 | z4 | z4 | z4 | E,2 F,2 | E,C, E,F, | E,2 D,2 | %22
 C,4 | C3 G, | E,3 C, | G,2 G,2 | G,4 | C,3 G, | E,2 F,2 | G,2 G,,2 | C,4 :| %31

